X: 33766
T: Ravelled Hank Of Yarn
R: reel
M: 4/4
K: Gmajor
||~B2 dB cA (3AAA|BG (3GFG ~d2 dc|~B2 dB cA (3AAA|dBcA BG ~G2|
DGBd cA (3AAA|BG (3GFG dedc|BABd cA (3AAA dBcA BG G2||
g2 ga gfde|dc (3ABc defd|(3gfg ga gfde|=fedB c2 Bc|
dg (3gfg gfde|dc (3ABc defd|(3gfg bg (3gfg bg|(3gfg bg afdc||

